X:1
P: O' a' the Airts
C: Robert Burns song, from Gillian Charters
C: arr. T. Traub 2-17-2004
R: Strathspey
M: 4/4
K: F
L: 1/4
C|"F"F>F "Bb"F>F|"F"F C F d|"F7"c>A G F|"Bb"D3 "C7"C/D/|"F"F>F "Bb"F>F|"F"F C "Dm"F d|"Am"c>d "Dm"f A|"C"c3 d||
"F"c>d f A|"Am"c>A "Dm"G F|"Gm"G>A B/A/G/F/|"Bb"D3 "C7"C/D/|"F"F>F "Bb"F>F|"F"F C "Bb"F d|"C7"c<A G>A|"F"F2 z/ "C7"C/B,/||
"F"A,>C F>C|"Bb"D>C F "C"G|"F"A>c "F7"B/A/G/F/|"Bb"D3 "C7"C/B,/|"F"A,>C F>C|"Bb"D>C F "C"G|"F"A>B c/d/e/f/|"C"c3 d/e/||
"Dm"f>e d c|"Bb"d>c "C7"B "F"A|"Gm"G>A B/A/G/F/|"Bb"D3 "C7"C/D/|"F"F>F "Bb"F>F|"F"F C "Bb"F d|"F"c>A "C"G>A|"F"F3 |]
